images/logos/fetch-w.svg

<svg fill="none" height="80" viewBox="0 0 265 80" width="265" xmlns="http://www.w3.org/2000/svg"><path d="m8.62987 26.0648v-2.8178c-.17611-16.026 6.86853-23.071 21.31003-23.247 7.9252 0 18.844 2.8178 18.844 12.328 0 4.4029-3.3462 8.8057-7.749 8.8057s-7.9252-2.8178-8.1013-7.3968c0-2.9939 1.7611-5.1073 4.579-5.4595v-.17611c-1.4089-.17611-2.8178-.52834-4.2267-.52834-5.2834 0-5.8118 4.75505-5.8118 9.33405l.1761 8.9818h9.5102l.1761 9.158-9.6863.1762.1761 28.707c0 3.1701.8806 4.9312 4.0506 4.7551h4.7551v9.158l-36.632.1761v-9.158h4.9312c3.3462 0 4.0506-1.7611 4.0506-4.9312l-.17611-28.707h-8.4535v-9.158h8.2774zm49.66403 27.65c0 7.9252 1.9373 15.85 11.447 15.85 4.0506 0 10.391-3.1701 11.447-9.8624l13.209-.1761c-1.7611 13.737-14.97 19.549-27.298 19.725-19.549.1761-28.883-10.567-28.883-28.178-.1761-17.611 12.328-28.354 28.531-28.531 18.492-.1761 28.883 13.032 29.059 30.82l-37.512.3522zm17.259-9.158v-2.9939c0-5.8118-3.1701-9.6863-8.6296-9.6863s-8.6296 4.0506-8.4535 9.8624v2.8178zm43.8531-41.5632.176 21.1342 14.089-.1761.176 9.158-14.089.1761.176 31.172c0 2.4656 1.409 4.4029 4.051 4.4029 4.403 0 5.459-3.1701 5.459-8.2774l-.176-8.8057h9.158l.176 10.039c.176 11.095-5.459 17.259-19.02 17.435-11.8 0-18.316-5.4595-18.316-17.259l-.352-28.531h-7.7489v-9.158c11.4469-.1761 14.2649-11.8 15.1459-21.31zm72.559 55.4762c-.352 14.618-10.743 20.253-23.423 20.253-16.907.1761-28.178-9.158-28.354-28.178-.176-18.844 13.385-28.178 28.002-28.354 12.152-.1761 23.599 5.8118 23.599 18.316 0 5.9879-3.699 11.095-10.039 11.095-5.46 0-10.039-2.1134-10.039-8.2774 0-5.2834 3.522-8.2774 8.806-8.2774-2.114-2.4656-5.636-3.8745-9.158-3.8745-5.812 0-11.095 5.8118-11.095 19.02.176 13.032 3.346 18.844 11.271 18.668 5.811 0 8.629-5.1073 9.158-10.391h11.271zm26.241-57.061.176 30.82h.176c4.931-7.3968 10.391-10.567 19.549-10.567 13.032-.1761 17.259 7.3968 17.435 19.196l.176 21.662c0 3.1701.881 4.9312 4.051 4.7551h4.403v9.158l-33.814.1764-.176-9.1583h2.465c3.17 0 4.051-1.7611 4.051-4.9312l-.176-19.549c0-6.6924-1.057-11.095-8.806-11.095-5.283 0-8.454 4.9312-8.454 9.6863l.177 20.958c0 3.1701.88 4.9312 4.05 4.7551h2.818v9.158l-34.342.1761v-9.158h4.579c3.17 0 4.051-1.7611 4.051-4.9312l-.353-47.375c0-3.1701-.88-4.9312-4.05-4.9312h-4.755l-.176-9.15798 26.946.35223z" fill="#fff"/></svg>

<svg width="265" height="80" viewBox="0 0 265 80" fill="none" xmlns="http://www.w3.org/2000/svg">
<path d="M8.62987 26.0648V23.247C8.45376 7.221 15.4984 0.176 29.9399 0C37.8651 0 48.7839 2.8178 48.7839 12.328C48.7839 16.7309 45.4377 21.1337 41.0349 21.1337C36.6321 21.1337 33.1097 18.3159 32.9336 13.7369C32.9336 10.743 34.6947 8.6296 37.5126 8.2774V8.10129C36.1037 7.92518 34.6948 7.57295 33.2859 7.57295C28.0025 7.57295 27.4741 12.328 27.4741 16.907L27.6502 25.8888H37.1604L37.3365 35.0468L27.6502 35.223L27.8263 63.93C27.8263 67.1001 28.7069 68.8612 31.8769 68.6851H36.632V77.8431L0 78.0192V68.8612H4.9312C8.2774 68.8612 8.9818 67.1001 8.9818 63.93L8.80569 35.223H0.35219V26.065H8.62959L8.62987 26.0648ZM58.2939 53.7148C58.2939 61.64 60.2312 69.5648 69.7409 69.5648C73.7915 69.5648 80.1319 66.3947 81.1879 59.7024L94.3969 59.5263C92.6358 73.2633 79.4269 79.0753 67.0989 79.2513C47.5499 79.4274 38.2159 68.6843 38.2159 51.0733C38.0398 33.4623 50.5439 22.7193 66.7469 22.5423C85.2389 22.3662 95.6299 35.5743 95.8059 53.3623L58.2939 53.7145V53.7148ZM75.5529 44.5568V41.5629C75.5529 35.7511 72.3828 31.8766 66.9233 31.8766C61.4638 31.8766 58.2937 35.9272 58.4698 41.739V44.5568H75.5529ZM119.406 2.9936L119.582 24.1278L133.671 23.9517L133.847 33.1097L119.758 33.2858L119.934 64.4578C119.934 66.9234 121.343 68.8607 123.985 68.8607C128.388 68.8607 129.444 65.6906 129.444 60.5833L129.268 51.7776H138.426L138.602 61.8166C138.778 72.9116 133.143 79.0756 119.582 79.2516C107.782 79.2516 101.266 73.7921 101.266 61.9926L100.914 33.4616H93.1651V24.3036C104.612 24.1275 107.43 12.5036 108.311 2.9936H119.406H119.406ZM191.965 58.4698C191.613 73.0878 181.222 78.7228 168.542 78.7228C151.635 78.8989 140.364 69.5648 140.188 50.5448C140.012 31.7008 153.573 22.3668 168.19 22.1908C180.342 22.0147 191.789 28.0026 191.789 40.5068C191.789 46.4947 188.09 51.6018 181.75 51.6018C176.29 51.6018 171.711 49.4884 171.711 43.3244C171.711 38.041 175.233 35.047 180.517 35.047C178.403 32.5814 174.881 31.1725 171.359 31.1725C165.547 31.1725 160.264 36.9843 160.264 50.1925C160.44 63.2245 163.61 69.0365 171.535 68.8605C177.346 68.8605 180.164 63.7532 180.693 58.4695H191.964L191.965 58.4698ZM218.206 1.4088L218.382 32.2288H218.558C223.489 24.832 228.949 21.6618 238.107 21.6618C251.139 21.4857 255.366 29.0586 255.542 40.8578L255.718 62.5198C255.718 65.6899 256.599 67.451 259.769 67.2749H264.172V76.4329L230.358 76.6093L230.182 67.451H232.647C235.817 67.451 236.698 65.6899 236.698 62.5198L236.522 42.9708C236.522 36.2784 235.465 31.8758 227.716 31.8758C222.433 31.8758 219.262 36.807 219.262 41.5621L219.439 62.5201C219.439 65.6902 220.319 67.4513 223.489 67.2752H226.307V76.4332L191.965 76.6093V67.4513H196.544C199.714 67.4513 200.595 65.6902 200.595 62.5201L200.242 15.1451C200.242 11.975 199.362 10.2139 196.192 10.2139H191.437L191.261 1.05592L218.207 1.40815L218.206 1.4088Z" fill="white"/>
</svg>
